public/assets/partners/featured/hackplus.svg

<svg height="35" viewBox="0 0 153.24 44.9" xmlns="http://www.w3.org/2000/svg"><path d="m142.77 10.56v10.44h-6.94v-10.44" fill="#66d9fb"/><path d="m142.77 27.87v10.47h-6.94v-10.47" fill="#c28aeb"/><path d="m142.66 20.92h10.58v7h-10.58" fill="#7dfa8c"/><path d="m125.25 20.92h10.58v7h-10.58" fill="#ff9f1a"/><path d="m135.83 20.92h6.94v6.95h-6.94z" fill="#ff3838"/><g fill="#333"><path d="m8.08 44h-8.08v-44h8.08v16.59c1.95-2.31 5.23-3.28 8.08-3.28 7.6 0 11.12 5.28 11.12 11.85v18.84h-8.08v-17.45c0-3.34-1.64-5.95-5.53-5.95-3.4 0-5.41 2.55-5.59 5.83z"/><path d="m39.55 26.8 7.35-1.1c1.7-.24 2.25-1.09 2.25-2.12 0-2.13-1.64-3.89-5-3.89s-5.47 2.24-5.71 4.86l-7.21-1.55c.48-4.68 4.8-9.84 12.82-9.84 9.47 0 13 5.34 13 11.36v14.7a33.86 33.86 0 0 0 .36 4.78h-7.41a20.48 20.48 0 0 1 -.3-3.58 10 10 0 0 1 -8.81 4.43c-6.38 0-10.27-4.31-10.27-9 0-5.35 3.95-8.33 8.93-9.05zm9.6 5.1v-1.34l-6.74 1c-2.07.31-3.71 1.46-3.71 3.77 0 1.77 1.27 3.47 3.89 3.47 3.41.03 6.56-1.61 6.56-6.9z"/><path d="m67.86 29c0 5.41 3.52 8.45 7.65 8.45a6.84 6.84 0 0 0 6.87-5l7.11 2.37c-1.34 5-6 10.08-14 10.08a15.47 15.47 0 0 1 -15.72-15.9c0-9.23 6.81-15.85 15.5-15.85 8.14 0 12.76 5 14 10.08l-7.19 2.47a6.53 6.53 0 0 0 -6.63-5c-4.13-.04-7.59 2.94-7.59 8.3z"/><path d="m109.41 26.67 12.22 17.33h-9.91l-7.9-11.42-3.34 3.52v7.9h-8.08v-44h8.08v25.22l10.33-11.12h10.57z"/></g></svg>

<svg xmlns="http://www.w3.org/2000/svg" height="35" viewBox="0 0 153.24 44.9"><defs><style>.cls-1{isolation:isolate}.cls-2{fill:#66d9fb}.cls-3{fill:#c28aeb}.cls-4{fill:#7dfa8c}.cls-5{fill:#ff9f1a;mix-blend-mode:multiply}.cls-6{fill:#ff3838}.cls-7{fill:#333}</style></defs><title>hackplus_beta1</title><g class="cls-1"><g id="Layer_2" data-name="Layer 2"><g id="Layer_1-2" data-name="Layer 1"><path d="M142.77,10.56V21h-6.94V10.56" class="cls-2"/><path d="M142.77,27.87V38.34h-6.94V27.87" class="cls-3"/><path d="M142.66,20.92h10.58v7H142.66" class="cls-4"/><path d="M125.25,20.92h10.58v7H125.25" class="cls-5"/><rect width="6.94" height="6.95" x="135.83" y="20.92" class="cls-6"/><path d="M8.08,44H0V0H8.08V16.59c1.95-2.31,5.23-3.28,8.08-3.28,7.6,0,11.12,5.28,11.12,11.85V44H19.2V26.55c0-3.34-1.64-5.95-5.53-5.95-3.4,0-5.41,2.55-5.59,5.83Z" class="cls-7"/><path d="M39.55,26.8l7.35-1.1c1.7-.24,2.25-1.09,2.25-2.12,0-2.13-1.64-3.89-5-3.89s-5.47,2.24-5.71,4.86L31.23,23c.48-4.68,4.8-9.84,12.82-9.84,9.47,0,13,5.34,13,11.36v14.7A33.86,33.86,0,0,0,57.41,44H50a20.48,20.48,0,0,1-.3-3.58,10,10,0,0,1-8.81,4.43c-6.38,0-10.27-4.31-10.27-9C30.62,30.5,34.57,27.52,39.55,26.8Zm9.6,5.1V30.56l-6.74,1c-2.07.31-3.71,1.46-3.71,3.77,0,1.77,1.27,3.47,3.89,3.47C46,38.83,49.15,37.19,49.15,31.9Z" class="cls-7"/><path d="M67.86,29c0,5.41,3.52,8.45,7.65,8.45a6.84,6.84,0,0,0,6.87-5l7.11,2.37c-1.34,5-6,10.08-14,10.08A15.47,15.47,0,0,1,59.77,29c0-9.23,6.81-15.85,15.5-15.85,8.14,0,12.76,5,14,10.08L82.08,25.7a6.53,6.53,0,0,0-6.63-5C71.32,20.66,67.86,23.64,67.86,29Z" class="cls-7"/><path d="M109.41,26.67,121.63,44h-9.91l-7.9-11.42-3.34,3.52V44H92.4V0h8.08V25.22L110.81,14.1h10.57Z" class="cls-7"/></g></g></g></svg>
